Deco Proteste_files/pack-title-gift.svg

<?xml version="1.0" encoding="UTF-8"?>
<svg width="36px" height="33.9555168px" viewBox="0 0 36 33.9555168" version="1.1" xmlns="http://www.w3.org/2000/svg" xmlns:xlink="http://www.w3.org/1999/xlink">
    <title>pack-title-gift</title>
    <g id="1.-Ultra" stroke="none" stroke-width="1" fill="none" fill-rule="evenodd">
        <g id="Ultra01" transform="translate(-492.000000, -1000.999986)" fill="#FFFFFF">
            <g id="Blocs" transform="translate(0.000000, 827.000000)">
                <g id="colonneGauche" transform="translate(480.000000, 154.000000)">
                    <g id="pack-title-gift" transform="translate(12.000000, 19.999986)">
                        <path d="M33.75,15.8221835 L19.125,15.8221835 L19.125,11.2888501 L20.799,11.2888501 L33.75,11.2888501 L33.75,15.8221835 Z M19.125,31.6888501 L31.5,31.6888501 L31.5,18.0888501 L19.125,18.0888501 L19.125,31.6888501 Z M22.8825,2.93845013 C23.796,2.0159168 25.38,2.01818347 26.29125,2.93845013 C27.234,3.89498347 27.234,5.45445013 26.29125,6.41098347 C25.3215,7.3947168 22.35375,9.02218347 20.799,9.02218347 C20.47725,9.02218347 20.38275,8.94965013 20.3805,8.94738347 C19.8585,8.4011168 21.366,4.47525013 22.8825,2.93845013 L22.8825,2.93845013 Z M16.875,15.8221835 L2.25,15.8221835 L2.25,11.2888501 L15.201,11.2888501 L16.875,11.2888501 L16.875,15.8221835 Z M4.5,31.6888501 L16.875,31.6888501 L16.875,18.0888501 L4.5,18.0888501 L4.5,31.6888501 Z M9.70875,2.93845013 C10.1655,2.47605013 10.77075,2.22218347 11.41425,2.22218347 C12.0555,2.22218347 12.66075,2.47605013 13.1175,2.93845013 C14.634,4.47525013 16.1415,8.4011168 15.61725,8.94738347 C15.61725,8.94738347 15.52275,9.02218347 15.201,9.02218347 C13.64625,9.02218347 10.6785,7.3947168 9.70875,6.41098347 C8.766,5.45445013 8.766,3.89498347 9.70875,2.93845013 L9.70875,2.93845013 Z M33.75,9.02218347 L26.631,9.02218347 C27.14175,8.67085013 27.5805,8.32178347 27.8865,8.00898347 C29.7,6.1707168 29.7,3.1787168 27.8865,1.34045013 C26.12475,-0.445683199 23.05125,-0.447949865 21.28725,1.34045013 C20.313,2.32645013 17.72325,6.3407168 18.081,9.02218347 L17.919,9.02218347 C18.2745,6.3407168 15.687,2.32645013 14.71275,1.34045013 C12.94875,-0.447949865 9.87525,-0.445683199 8.1135,1.34045013 C6.3,3.1787168 6.3,6.1707168 8.11125,8.00898347 C8.4195,8.32178347 8.85825,8.67085013 9.369,9.02218347 L2.25,9.02218347 C1.01025,9.02218347 0,10.0399168 0,11.2888501 L0,16.9555168 C0,17.5811168 0.504,18.0888501 1.125,18.0888501 L2.25,18.0888501 L2.25,31.6888501 C2.25,32.9377835 3.26025,33.9555168 4.5,33.9555168 L31.5,33.9555168 C32.73975,33.9555168 33.75,32.9377835 33.75,31.6888501 L33.75,18.0888501 L34.875,18.0888501 C35.496,18.0888501 36,17.5811168 36,16.9555168 L36,11.2888501 C36,10.0399168 34.98975,9.02218347 33.75,9.02218347 L33.75,9.02218347 Z" id="Fill-1"></path>
                    </g>
                </g>
            </g>
        </g>
    </g>
</svg>

<svg xmlns="http://www.w3.org/2000/svg" width="36" height="33.956" xmlns:v="https://vecta.io/nano"><path d="M33.75 15.822H19.125v-4.533h1.674H33.75v4.533zM19.125 31.689H31.5v-13.6H19.125v13.6zm3.758-28.75a2.45 2.45 0 0 1 3.409 0c.943.957.943 2.516 0 3.473-.97.984-3.937 2.611-5.492 2.611-.322 0-.416-.073-.418-.075-.522-.546.985-4.472 2.502-6.009h0zm-6.007 12.884H2.25v-4.533h12.951 1.674v4.533zM4.5 31.689h12.375v-13.6H4.5v13.6zm5.209-28.75a2.38 2.38 0 0 1 3.409 0c1.517 1.537 3.024 5.463 2.5 6.009 0 0-.095.075-.416.075-1.555 0-4.523-1.627-5.492-2.611-.943-.957-.943-2.516 0-3.473h0zM33.75 9.022h-7.119c.511-.351.95-.7 1.256-1.013a4.77 4.77 0 0 0 0-6.669c-1.762-1.786-4.835-1.788-6.599 0-.974.986-3.564 5-3.206 7.682h-.162c.355-2.681-2.232-6.696-3.206-7.682-1.764-1.788-4.837-1.786-6.599 0a4.77 4.77 0 0 0-.002 6.669c.308.313.747.662 1.258 1.013H2.25C1.01 9.022 0 10.04 0 11.289v5.667a1.13 1.13 0 0 0 1.125 1.133H2.25v13.6c0 1.249 1.01 2.267 2.25 2.267h27c1.24 0 2.25-1.018 2.25-2.267v-13.6h1.125A1.13 1.13 0 0 0 36 16.956v-5.667c0-1.249-1.01-2.267-2.25-2.267h0z" fill="#fff" fill-rule="evenodd"/></svg>
